SVG/bell-o.svg

<?xml version="1.0" encoding="utf-8"?>
<!-- Generated by IcoMoon.io -->
<!DOCTYPE svg PUBLIC "-//W3C//DTD SVG 1.1//EN" "http://www.w3.org/Graphics/SVG/1.1/DTD/svg11.dtd">
<svg version="1.1" xmlns="http://www.w3.org/2000/svg" xmlns:xlink="http://www.w3.org/1999/xlink" width="14" height="14" viewBox="0 0 14 14">
<path fill="#444444" d="M7.125 13.25q0-0.125-0.125-0.125-0.461 0-0.793-0.332t-0.332-0.793q0-0.125-0.125-0.125t-0.125 0.125q0 0.57 0.402 0.973t0.973 0.402q0.125 0 0.125-0.125zM1.922 11h10.156q-2.078-2.344-2.078-6.5 0-0.398-0.187-0.82t-0.539-0.805-0.949-0.629-1.324-0.246-1.324 0.246-0.949 0.629-0.539 0.805-0.187 0.82q0 4.156-2.078 6.5zM13.5 11q0 0.406-0.297 0.703t-0.703 0.297h-3.5q0 0.828-0.586 1.414t-1.414 0.586-1.414-0.586-0.586-1.414h-3.5q-0.406 0-0.703-0.297t-0.297-0.703q0.391-0.328 0.711-0.688t0.664-0.934 0.582-1.238 0.391-1.609 0.152-2.031q0-1.187 0.914-2.207t2.398-1.238q-0.062-0.148-0.062-0.305 0-0.312 0.219-0.531t0.531-0.219 0.531 0.219 0.219 0.531q0 0.156-0.062 0.305 1.484 0.219 2.398 1.238t0.914 2.207q0 1.086 0.152 2.031t0.391 1.609 0.582 1.238 0.664 0.934 0.711 0.688z"></path>
</svg>

<svg xmlns="http://www.w3.org/2000/svg" viewBox="0 0 14 14"><path d="M7.125 13.25q0-.125-.125-.125-.46 0-.793-.332T5.875 12q0-.125-.125-.125T5.625 12q0 .57.402.973t.973.402q.125 0 .125-.125zM1.922 11h10.156Q10 8.656 10 4.5q0-.398-.187-.82t-.54-.805-.948-.63T7 2t-1.323.246-.95.63-.538.804T4 4.5Q4 8.656 1.922 11zM13.5 11q0 .406-.297.703T12.5 12H9q0 .828-.586 1.414T7 14t-1.414-.586T5 12H1.5q-.406 0-.703-.297T.5 11q.39-.328.71-.688t.665-.934.582-1.238.39-1.61T3 4.5q0-1.187.914-2.207t2.398-1.238Q6.25.907 6.25.75q0-.312.22-.53T7 0t.53.22.22.53q0 .156-.062.305 1.484.22 2.398 1.238T11 4.5q0 1.086.152 2.03t.39 1.61.583 1.238.664.934.71.688z" /></svg>
